X:1
T:Гімн безсмертної батави (Співаник УПА 1950)
T:Марш УПА-Захід
T:В. Пачовський
%%score { ( 1 2 ) | ( 3 4 ) }
L:1/8
Q:1/4=72
M:2/4
K:Ab
V:1 treble nm="Hch." snm="Hch."
V:2 treble 
V:3 bass 
V:4 bass 
V:1
!f!"^Ми""^Maestoso (bpm=72)" c2"^ли -" c"^ца -" c |"^рі" d3"^без" c | %2
"^жа -" B"^ху" A"^і" G"^без" F |"^смер -" =E2"^ти,""_смер -" C2"_ти" | %4
"_на""^на" F2"^зло -" G"^чин" G |"^сві -"!>(! A2"^ту" B2 |"^станем" c B"^без" A"^ва -" B!>)! | %7
"^ги,"!ff! c3 z |:!p!"_ми" c2"_при -"!<(! c"_ся -" c!<)! |"_гли" f3"_ся"!>(! e!>)!"_-" | %10
"_до -"!>(! d"_лю" c"_пе -" B"^ре\n" A!>)! |"_пер" G2"_ти," F2 |"_роз -" =E2"_дер -" F"_ти"!<(! F | %13
"_при -" G2"_суд" (AB) ||1"^смер\n" c"^-ти\n" B"_ваш," A"_бо -" B!<)! ||!f!"_ги"!>(! c3 z!>)! :|2 %16
"_смер"!>(! c"_-ти" B"_ваш" A"_бо -" G!>)! ||"_-ги" !fermata!F3 z |] %18
V:2
 c2 c c | d3 c | B A G F | =E2 C2 | F2 =E E | F2 F2 | A G F F | G3 z |: E2 F G | =A3 c | B _A G A | %11
 (G!p!"_-"=E) F2 | =E2 F F | =E2 F2 ||1 F F F F || =E3 z :|2 =E G F E || F3 z |] %18
V:3
 C2 C C | D3 C | B, A, G, F, | =G,2 C,2 |!<(! C,2 C, C,!<)! | C,2 D,2 | F, =E, F, D, | =E,3 z |: %8
 E,2 E, E, | (E,>C,F,) F, | F, F, F, F, | (=E,C,) C,2 | D,2 C, C, | C,2 (C,D,) ||1 E, D, C, D, || %15
 z4 :|2 C, =E, F, C, || !fermata!F,3 z |] %18
V:4
 z4 | z4 | z4 | z2 C,3/2 B,,/ | A,,2 G,, G,, | F,,2 D,2 | C, C, D, G,, | C,3 z |: F,,2 F,, F,, | %9
 F,,3 =A,, | B,, C, D, B,, | C,B,, A,,2 | B,,2 A,, A,, | G,,2 F,,2 ||1 F,, G,, A,, D, || %15
 (C,B,,A,,G,,) :|2 C, C, C, C, || F,,3 z |] %18

